Newaita-dark/.places-mint/24/folder-publicshare.svg

<?xml version="1.0" encoding="UTF-8"?>
<svg xmlns="http://www.w3.org/2000/svg" xmlns:xlink="http://www.w3.org/1999/xlink" width="24px" height="24px" viewBox="0 0 24 24" version="1.1">
<defs>
<linearGradient id="linear0" gradientUnits="userSpaceOnUse" x1="254" y1="233.5" x2="254" y2="254.666672" gradientTransform="matrix(0.0468795,0,0,0.0468795,-0.0000028613,10.07909)">
<stop offset="0" style="stop-color:rgb(0%,0%,0%);stop-opacity:0.27451;"/>
<stop offset="1" style="stop-color:rgb(0%,0%,0%);stop-opacity:0;"/>
</linearGradient>
<radialGradient id="radial0" gradientUnits="userSpaceOnUse" cx="450.908936" cy="189.579361" fx="450.908936" fy="189.579361" r="21.166656" gradientTransform="matrix(0.000000130628,-0.0585994,-0.105479,-0.0000000761539,40.58641,47.696501)">
<stop offset="0" style="stop-color:rgb(0%,0%,0%);stop-opacity:0.313726;"/>
<stop offset="0.222222" style="stop-color:rgb(0%,0%,0%);stop-opacity:0.27451;"/>
<stop offset="1" style="stop-color:rgb(0%,0%,0%);stop-opacity:0;"/>
</radialGradient>
<radialGradient id="radial1" gradientUnits="userSpaceOnUse" cx="450.908936" cy="189.579361" fx="450.908936" fy="189.579361" r="21.166656" gradientTransform="matrix(-0.000000130628,0.0585994,0.105479,0.0000000761539,-16.771633,-5.645608)">
<stop offset="0" style="stop-color:rgb(0%,0%,0%);stop-opacity:0.313726;"/>
<stop offset="0.222222" style="stop-color:rgb(0%,0%,0%);stop-opacity:0.27451;"/>
<stop offset="1" style="stop-color:rgb(0%,0%,0%);stop-opacity:0;"/>
</radialGradient>
<radialGradient id="radial2" gradientUnits="userSpaceOnUse" cx="450.908936" cy="189.579361" fx="450.908936" fy="189.579361" r="21.166656" gradientTransform="matrix(-0.000000130628,-0.0585994,0.105479,-0.0000000761539,-16.771633,47.696501)">
<stop offset="0" style="stop-color:rgb(0%,0%,0%);stop-opacity:0.313726;"/>
<stop offset="0.222222" style="stop-color:rgb(0%,0%,0%);stop-opacity:0.27451;"/>
<stop offset="1" style="stop-color:rgb(0%,0%,0%);stop-opacity:0;"/>
</radialGradient>
<radialGradient id="radial3" gradientUnits="userSpaceOnUse" cx="450.908936" cy="189.579361" fx="450.908936" fy="189.579361" r="21.166656" gradientTransform="matrix(0.000000130628,0.0585994,-0.105479,0.0000000761539,40.586408,-5.645608)">
<stop offset="0" style="stop-color:rgb(0%,0%,0%);stop-opacity:0.313726;"/>
<stop offset="0.222222" style="stop-color:rgb(0%,0%,0%);stop-opacity:0.27451;"/>
<stop offset="1" style="stop-color:rgb(0%,0%,0%);stop-opacity:0;"/>
</radialGradient>
<linearGradient id="linear1" gradientUnits="userSpaceOnUse" x1="254" y1="-147.5" x2="254" y2="-31.083334" gradientTransform="matrix(0.0468795,0,0,0.0468795,0.000000937315,10.079086)">
<stop offset="0" style="stop-color:rgb(64.313728%,64.313728%,64.313728%);stop-opacity:0;"/>
<stop offset="1" style="stop-color:rgb(100%,100%,100%);stop-opacity:0.196078;"/>
</linearGradient>
<linearGradient id="linear2" gradientUnits="userSpaceOnUse" x1="254" y1="233.5" x2="254" y2="-105.166656" gradientTransform="matrix(0.0468795,0,0,0.0468795,-0.0000013593,10.079087)">
<stop offset="0" style="stop-color:rgb(34.509805%,34.509805%,34.509805%);stop-opacity:0;"/>
<stop offset="1" style="stop-color:rgb(98.039216%,98.039216%,98.039216%);stop-opacity:0.196078;"/>
</linearGradient>
</defs>
<g id="surface1">
<path style=" stroke:none;fill-rule:nonzero;fill:url(#linear0);" d="M 2.976562 21.027344 L 20.839844 21.027344 L 20.839844 22.019531 L 2.976562 22.019531 Z M 2.976562 21.027344 "/>
<path style=" stroke:none;fill-rule:nonzero;fill:url(#radial0);" d="M 20.839844 21.027344 L 22.824219 21.027344 L 22.824219 20.03125 L 20.839844 20.03125 Z M 20.839844 21.027344 "/>
<path style=" stroke:none;fill-rule:nonzero;fill:url(#radial1);" d="M 2.976562 21.027344 L 0.992188 21.027344 L 0.992188 22.019531 L 2.976562 22.019531 Z M 2.976562 21.027344 "/>
<path style=" stroke:none;fill-rule:nonzero;fill:url(#radial2);" d="M 2.976562 21.027344 L 0.992188 21.027344 L 0.992188 20.03125 L 2.976562 20.03125 Z M 2.976562 21.027344 "/>
<path style=" stroke:none;fill-rule:nonzero;fill:url(#radial3);" d="M 20.839844 21.027344 L 22.824219 21.027344 L 22.824219 22.019531 L 20.839844 22.019531 Z M 20.839844 21.027344 "/>
<path style=" stroke:none;fill-rule:nonzero;fill:rgb(61.176473%,80.000001%,39.607844%);fill-opacity:1;" d="M 5.457031 3.164062 L 21.582031 3.164062 C 22.128906 3.164062 22.574219 3.609375 22.574219 4.15625 L 22.574219 7.878906 C 22.574219 8.425781 22.128906 8.871094 21.582031 8.871094 L 5.457031 8.871094 C 4.910156 8.871094 4.464844 8.425781 4.464844 7.878906 L 4.464844 4.15625 C 4.464844 3.609375 4.910156 3.164062 5.457031 3.164062 Z M 5.457031 3.164062 "/>
<path style=" stroke:none;fill-rule:nonzero;fill:url(#linear1);" d="M 5.457031 3.164062 L 21.582031 3.164062 C 22.128906 3.164062 22.574219 3.609375 22.574219 4.15625 L 22.574219 7.878906 C 22.574219 8.425781 22.128906 8.871094 21.582031 8.871094 L 5.457031 8.871094 C 4.910156 8.871094 4.464844 8.425781 4.464844 7.878906 L 4.464844 4.15625 C 4.464844 3.609375 4.910156 3.164062 5.457031 3.164062 Z M 5.457031 3.164062 "/>
<path style=" stroke:none;fill-rule:nonzero;fill:rgb(100%,100%,100%);fill-opacity:0.392157;" d="M 5.457031 3.230469 C 4.90625 3.230469 4.464844 3.671875 4.464844 4.222656 L 4.464844 4.347656 C 4.464844 3.796875 4.90625 3.355469 5.457031 3.355469 L 21.582031 3.355469 C 22.132812 3.355469 22.574219 3.796875 22.574219 4.347656 L 22.574219 4.222656 C 22.574219 3.671875 22.132812 3.230469 21.582031 3.230469 Z M 5.457031 3.230469 "/>
<path style=" stroke:none;fill-rule:nonzero;fill:rgb(12.941177%,12.941177%,12.941177%);fill-opacity:1;" d="M 5.457031 3.09375 C 4.871094 3.09375 4.394531 3.570312 4.394531 4.15625 L 4.394531 7.878906 C 4.394531 8.464844 4.871094 8.941406 5.457031 8.941406 L 21.582031 8.941406 C 22.167969 8.941406 22.644531 8.464844 22.644531 7.878906 L 22.644531 4.15625 C 22.644531 3.570312 22.167969 3.09375 21.582031 3.09375 Z M 5.457031 3.234375 L 21.582031 3.234375 C 22.09375 3.234375 22.503906 3.644531 22.503906 4.15625 L 22.503906 7.878906 C 22.503906 8.390625 22.09375 8.800781 21.582031 8.800781 L 5.457031 8.800781 C 4.945312 8.800781 4.535156 8.390625 4.535156 7.878906 L 4.535156 4.15625 C 4.535156 3.644531 4.945312 3.234375 5.457031 3.234375 Z M 5.457031 3.234375 "/>
<path style=" stroke:none;fill-rule:nonzero;fill:rgb(68.235296%,83.529413%,50.588238%);fill-opacity:1;" d="M 1.984375 5.148438 C 1.433594 5.148438 0.992188 5.589844 0.992188 6.140625 L 0.992188 20.03125 C 0.992188 20.582031 1.433594 21.027344 1.984375 21.027344 L 21.832031 21.027344 C 22.378906 21.027344 22.824219 20.582031 22.824219 20.03125 L 22.824219 7.628906 L 9.425781 7.628906 C 8.878906 7.628906 8.433594 7.1875 8.433594 6.636719 L 8.433594 5.148438 Z M 1.984375 5.148438 "/>
<path style=" stroke:none;fill-rule:nonzero;fill:url(#linear2);" d="M 1.984375 5.148438 C 1.433594 5.148438 0.992188 5.589844 0.992188 6.140625 L 0.992188 20.03125 C 0.992188 20.582031 1.433594 21.027344 1.984375 21.027344 L 21.832031 21.027344 C 22.378906 21.027344 22.824219 20.582031 22.824219 20.03125 L 22.824219 7.628906 L 9.425781 7.628906 C 8.878906 7.628906 8.433594 7.1875 8.433594 6.636719 L 8.433594 5.148438 Z M 1.984375 5.148438 "/>
<path style=" stroke:none;fill-rule:nonzero;fill:rgb(0%,0%,0%);fill-opacity:0.196078;" d="M 1.984375 21.027344 C 1.433594 21.027344 0.992188 20.582031 0.992188 20.03125 L 0.992188 19.910156 C 0.992188 20.457031 1.433594 20.902344 1.984375 20.902344 L 21.832031 20.902344 C 22.378906 20.902344 22.824219 20.457031 22.824219 19.910156 L 22.824219 20.03125 C 22.824219 20.582031 22.378906 21.027344 21.832031 21.027344 Z M 1.984375 21.027344 "/>
<path style=" stroke:none;fill-rule:nonzero;fill:rgb(100%,100%,100%);fill-opacity:0.392157;" d="M 1.984375 5.214844 C 1.433594 5.214844 0.992188 5.65625 0.992188 6.207031 L 0.992188 6.332031 C 0.992188 5.78125 1.433594 5.339844 1.984375 5.339844 L 8.433594 5.339844 L 8.433594 5.214844 Z M 1.984375 5.214844 "/>
<path style=" stroke:none;fill-rule:nonzero;fill:rgb(100%,100%,100%);fill-opacity:0.392157;" d="M 9.363281 7.757812 C 8.816406 7.757812 8.371094 7.316406 8.371094 6.765625 L 8.371094 6.640625 C 8.371094 7.191406 8.816406 7.632812 9.363281 7.632812 L 22.824219 7.632812 L 22.824219 7.757812 Z M 9.363281 7.757812 "/>
<path style=" stroke:none;fill-rule:nonzero;fill:rgb(12.941177%,12.941177%,12.941177%);fill-opacity:1;" d="M 1.984375 5.078125 C 1.398438 5.078125 0.921875 5.554688 0.921875 6.140625 L 0.921875 20.03125 C 0.921875 20.621094 1.398438 21.097656 1.984375 21.097656 L 21.832031 21.097656 C 22.417969 21.097656 22.894531 20.621094 22.894531 20.03125 L 22.894531 7.488281 L 9.425781 7.488281 C 8.914062 7.488281 8.503906 7.078125 8.503906 6.566406 L 8.503906 5.078125 Z M 1.984375 5.21875 L 8.363281 5.21875 L 8.363281 6.566406 C 8.363281 7.15625 8.839844 7.628906 9.425781 7.628906 L 22.753906 7.628906 L 22.753906 20.03125 C 22.753906 20.546875 22.34375 20.957031 21.832031 20.957031 L 1.984375 20.957031 C 1.472656 20.957031 1.0625 20.546875 1.0625 20.03125 L 1.0625 6.140625 C 1.0625 5.628906 1.472656 5.21875 1.984375 5.21875 Z M 1.984375 5.21875 "/>
<path style=" stroke:none;fill-rule:nonzero;fill:rgb(54.509807%,76.47059%,29.019609%);fill-opacity:1;" d="M 11.90625 9.605469 C 10.945312 9.605469 10.171875 10.378906 10.171875 11.34375 C 10.171875 12.304688 10.945312 13.078125 11.90625 13.078125 C 12.871094 13.078125 13.644531 12.304688 13.644531 11.34375 C 13.644531 10.378906 12.871094 9.605469 11.90625 9.605469 Z M 10.488281 13.335938 C 9.558594 13.710938 8.929688 14.453125 8.929688 15.3125 L 8.929688 17.046875 C 8.929688 17.324219 9.152344 17.542969 9.425781 17.542969 L 14.386719 17.542969 C 14.664062 17.542969 14.882812 17.324219 14.882812 17.046875 L 14.882812 15.3125 C 14.882812 14.453125 14.253906 13.710938 13.328125 13.335938 C 13.011719 13.78125 12.496094 14.070312 11.90625 14.070312 C 11.320312 14.070312 10.800781 13.78125 10.488281 13.335938 Z M 10.488281 13.335938 "/>
<path style=" stroke:none;fill-rule:nonzero;fill:rgb(100%,100%,100%);fill-opacity:0.392157;" d="M 10.171875 11.445312 C 10.171875 11.476562 10.171875 11.503906 10.171875 11.535156 C 10.171875 12.496094 10.945312 13.273438 11.90625 13.273438 C 12.871094 13.273438 13.644531 12.496094 13.644531 11.535156 C 13.644531 11.503906 13.644531 11.476562 13.640625 11.445312 C 13.59375 12.363281 12.839844 13.089844 11.90625 13.089844 C 10.976562 13.089844 10.21875 12.363281 10.171875 11.445312 Z M 8.929688 17.058594 L 8.929688 17.242188 C 8.929688 17.515625 9.152344 17.738281 9.425781 17.738281 L 14.386719 17.738281 C 14.664062 17.738281 14.882812 17.515625 14.882812 17.242188 L 14.882812 17.058594 C 14.882812 17.335938 14.664062 17.554688 14.386719 17.554688 L 9.425781 17.554688 C 9.152344 17.554688 8.929688 17.335938 8.929688 17.058594 Z M 8.929688 17.058594 "/>
<path style=" stroke:none;fill-rule:nonzero;fill:rgb(0%,0%,0%);fill-opacity:0.235294;" d="M 11.90625 9.605469 C 10.945312 9.605469 10.171875 10.378906 10.171875 11.34375 C 10.171875 11.375 10.171875 11.40625 10.171875 11.441406 C 10.222656 10.523438 10.976562 9.800781 11.90625 9.800781 C 12.835938 9.800781 13.589844 10.523438 13.640625 11.441406 C 13.644531 11.40625 13.644531 11.375 13.644531 11.34375 C 13.644531 10.378906 12.871094 9.605469 11.90625 9.605469 Z M 10.488281 13.335938 C 9.558594 13.710938 8.929688 14.453125 8.929688 15.3125 L 8.929688 15.507812 C 8.929688 14.648438 9.558594 13.90625 10.488281 13.53125 C 10.800781 13.976562 11.320312 14.265625 11.90625 14.265625 C 12.496094 14.265625 13.011719 13.976562 13.328125 13.53125 C 14.253906 13.90625 14.882812 14.648438 14.882812 15.507812 L 14.882812 15.3125 C 14.882812 14.453125 14.253906 13.710938 13.328125 13.335938 C 13.011719 13.78125 12.496094 14.070312 11.90625 14.070312 C 11.320312 14.070312 10.800781 13.78125 10.488281 13.335938 Z M 10.488281 13.335938 "/>
<path style=" stroke:none;fill-rule:nonzero;fill:rgb(12.941177%,12.941177%,12.941177%);fill-opacity:1;" d="M 11.90625 9.535156 C 10.90625 9.535156 10.101562 10.34375 10.101562 11.34375 C 10.101562 12.34375 10.90625 13.148438 11.90625 13.148438 C 12.90625 13.148438 13.714844 12.34375 13.714844 11.34375 C 13.714844 10.34375 12.90625 9.535156 11.90625 9.535156 Z M 11.90625 9.675781 C 12.832031 9.675781 13.574219 10.417969 13.574219 11.34375 C 13.574219 12.265625 12.832031 13.007812 11.90625 13.007812 C 10.984375 13.007812 10.242188 12.265625 10.242188 11.34375 C 10.242188 10.417969 10.984375 9.675781 11.90625 9.675781 Z M 10.511719 13.25 L 10.460938 13.273438 C 9.515625 13.652344 8.859375 14.417969 8.859375 15.3125 L 8.859375 17.046875 C 8.859375 17.359375 9.113281 17.613281 9.425781 17.613281 L 14.386719 17.613281 C 14.699219 17.613281 14.953125 17.359375 14.953125 17.046875 L 14.953125 15.3125 C 14.953125 14.417969 14.300781 13.652344 13.351562 13.273438 L 13.300781 13.25 L 13.269531 13.296875 C 12.96875 13.722656 12.472656 14 11.90625 14 C 11.34375 14 10.847656 13.722656 10.546875 13.296875 Z M 13.347656 13.425781 C 14.226562 13.796875 14.8125 14.503906 14.8125 15.3125 L 14.8125 17.046875 C 14.8125 17.285156 14.625 17.472656 14.386719 17.472656 L 9.425781 17.472656 C 9.191406 17.472656 9 17.285156 9 17.046875 L 9 15.3125 C 9 14.503906 9.585938 13.796875 10.46875 13.425781 C 10.796875 13.859375 11.316406 14.140625 11.90625 14.140625 C 12.496094 14.140625 13.019531 13.859375 13.347656 13.425781 Z M 13.347656 13.425781 "/>
</g>
</svg>

<svg xmlns="http://www.w3.org/2000/svg" width="24" height="24"><defs><linearGradient id="a" gradientUnits="userSpaceOnUse" x1="254" y1="233.5" x2="254" y2="254.667" gradientTransform="matrix(.04688 0 0 .04688 0 10.08)"><stop offset="0" stop-opacity=".275"/><stop offset="1" stop-opacity="0"/></linearGradient><radialGradient id="b" gradientUnits="userSpaceOnUse" cx="450.909" cy="189.579" fx="450.909" fy="189.579" r="21.167" gradientTransform="matrix(0 -.0586 -.10548 0 40.586 47.697)"><stop offset="0" stop-opacity=".314"/><stop offset=".222" stop-opacity=".275"/><stop offset="1" stop-opacity="0"/></radialGradient><radialGradient id="c" gradientUnits="userSpaceOnUse" cx="450.909" cy="189.579" fx="450.909" fy="189.579" r="21.167" gradientTransform="matrix(0 .0586 .10548 0 -16.772 -5.646)"><stop offset="0" stop-opacity=".314"/><stop offset=".222" stop-opacity=".275"/><stop offset="1" stop-opacity="0"/></radialGradient><radialGradient id="d" gradientUnits="userSpaceOnUse" cx="450.909" cy="189.579" fx="450.909" fy="189.579" r="21.167" gradientTransform="matrix(0 -.0586 .10548 0 -16.772 47.697)"><stop offset="0" stop-opacity=".314"/><stop offset=".222" stop-opacity=".275"/><stop offset="1" stop-opacity="0"/></radialGradient><radialGradient id="e" gradientUnits="userSpaceOnUse" cx="450.909" cy="189.579" fx="450.909" fy="189.579" r="21.167" gradientTransform="matrix(0 .0586 -.10548 0 40.586 -5.646)"><stop offset="0" stop-opacity=".314"/><stop offset=".222" stop-opacity=".275"/><stop offset="1" stop-opacity="0"/></radialGradient><linearGradient id="f" gradientUnits="userSpaceOnUse" x1="254" y1="-147.5" x2="254" y2="-31.083" gradientTransform="matrix(.04688 0 0 .04688 0 10.08)"><stop offset="0" stop-color="#a4a4a4" stop-opacity="0"/><stop offset="1" stop-color="#fff" stop-opacity=".196"/></linearGradient><linearGradient id="g" gradientUnits="userSpaceOnUse" x1="254" y1="233.5" x2="254" y2="-105.167" gradientTransform="matrix(.04688 0 0 .04688 0 10.08)"><stop offset="0" stop-color="#585858" stop-opacity="0"/><stop offset="1" stop-color="#fafafa" stop-opacity=".196"/></linearGradient><linearGradient id="h" gradientUnits="userSpaceOnUse" x1="254" y1="-147.5" x2="254" y2="233.5" gradientTransform="matrix(.04688 0 0 .04688 0 10.08)"><stop offset="0" stop-color="#a4a4a4" stop-opacity="0"/><stop offset="1" stop-color="#fff" stop-opacity=".196"/></linearGradient></defs><path d="M2.977 21.027H20.84v.993H2.977zm0 0" fill="url(#a)"/><path d="M20.84 21.027h1.984v-.996H20.84zm0 0" fill="url(#b)"/><path d="M2.977 21.027H.992v.993h1.985zm0 0" fill="url(#c)"/><path d="M2.977 21.027H.992v-.996h1.985zm0 0" fill="url(#d)"/><path d="M20.84 21.027h1.984v.993H20.84zm0 0" fill="url(#e)"/><path d="M5.457 3.164h16.125c.547 0 .992.445.992.992V7.88a.994.994 0 0 1-.992.992H5.457a.994.994 0 0 1-.992-.992V4.156c0-.547.445-.992.992-.992zm0 0" fill="#7cb342"/><path d="M5.457 3.164h16.125c.547 0 .992.445.992.992V7.88a.994.994 0 0 1-.992.992H5.457a.994.994 0 0 1-.992-.992V4.156c0-.547.445-.992.992-.992zm0 0" fill="url(#f)"/><path d="M5.457 3.164a.989.989 0 0 0-.992.992v.125c0-.55.441-.992.992-.992h16.125c.55 0 .992.441.992.992v-.125a.989.989 0 0 0-.992-.992zm0 0" fill="#e6e6e6" fill-opacity=".588"/><path d="M5.457 3.094c-.586 0-1.062.476-1.062 1.062V7.88c0 .586.476 1.062 1.062 1.062h16.125c.586 0 1.063-.476 1.063-1.062V4.156c0-.586-.477-1.062-1.063-1.062zm0 .14h16.125c.512 0 .922.41.922.922V7.88c0 .512-.41.922-.922.922H5.457a.919.919 0 0 1-.922-.922V4.156c0-.511.41-.922.922-.922zm0 0" fill="#212121"/><path d="M1.984 5.148a.989.989 0 0 0-.992.993v13.89c0 .551.442.996.992.996h19.848a.994.994 0 0 0 .992-.996V7.63H9.426a.991.991 0 0 1-.992-.992V5.148zm0 0" fill="#9ccc65"/><path d="M1.984 5.148a.989.989 0 0 0-.992.993v13.89c0 .551.442.996.992.996h19.848a.994.994 0 0 0 .992-.996V7.63H9.426a.991.991 0 0 1-.992-.992V5.148zm0 0" fill="url(#g)"/><path d="M1.984 21.027a.992.992 0 0 1-.992-.996v-.12c0 .546.442.991.992.991h19.848a.994.994 0 0 0 .992-.992v.121c0 .551-.445.996-.992.996zm0 0" fill-opacity=".196"/><path d="M1.984 5.148a.989.989 0 0 0-.992.993v.125c0-.551.442-.993.992-.993h6.45v-.125zm0 0M9.363 7.691a.991.991 0 0 1-.992-.992v-.125c0 .551.445.996.992.992h13.461v.125zm0 0" fill="#e6e6e6" fill-opacity=".937"/><path d="M1.984 5.078c-.586 0-1.062.477-1.062 1.063v13.89c0 .59.476 1.067 1.062 1.067h19.848c.586 0 1.063-.477 1.063-1.067V7.488H9.425a.919.919 0 0 1-.921-.922V5.078zm0 .14h6.38v1.348c0 .59.476 1.063 1.062 1.063h13.328V20.03a.92.92 0 0 1-.922.926H1.984a.92.92 0 0 1-.921-.926V6.141c0-.512.41-.922.921-.922zm0 0" fill="#212121"/><path d="M11.906 9.605c-.96 0-1.734.774-1.734 1.739 0 .96.773 1.734 1.734 1.734.965 0 1.739-.773 1.739-1.734 0-.965-.774-1.739-1.739-1.739zm-1.418 3.73c-.93.376-1.558 1.118-1.558 1.977v1.735c0 .277.222.496.496.496h4.96a.492.492 0 0 0 .497-.496v-1.735c0-.859-.63-1.601-1.555-1.976a1.735 1.735 0 0 1-1.422.734c-.586 0-1.105-.289-1.418-.734zm0 0" fill="#7cb342"/><path d="M11.906 9.605c-.96 0-1.734.774-1.734 1.739 0 .96.773 1.734 1.734 1.734.965 0 1.739-.773 1.739-1.734 0-.965-.774-1.739-1.739-1.739zm-1.418 3.73c-.93.376-1.558 1.118-1.558 1.977v1.735c0 .277.222.496.496.496h4.96a.492.492 0 0 0 .497-.496v-1.735c0-.859-.63-1.601-1.555-1.976a1.735 1.735 0 0 1-1.422.734c-.586 0-1.105-.289-1.418-.734zm0 0" fill="url(#h)"/><path d="M11.906 9.535c-1 0-1.804.809-1.804 1.809a1.8 1.8 0 0 0 1.804 1.804 1.807 1.807 0 0 0 0-3.613zm0 .14c.926 0 1.668.743 1.668 1.669 0 .922-.742 1.664-1.668 1.664a1.66 1.66 0 0 1-1.664-1.664c0-.926.742-1.668 1.664-1.668zm-1.394 3.575l-.051.023c-.945.38-1.602 1.145-1.602 2.04v1.734c0 .312.254.566.567.566h4.96a.567.567 0 0 0 .567-.566v-1.735c0-.894-.652-1.66-1.601-2.039l-.051-.023-.031.047c-.301.426-.797.703-1.364.703a1.66 1.66 0 0 1-1.36-.703zm2.836.176c.879.37 1.464 1.078 1.464 1.886v1.735a.422.422 0 0 1-.425.426H9.426A.424.424 0 0 1 9 17.047v-1.735c0-.808.586-1.515 1.469-1.886a1.804 1.804 0 0 0 2.879 0zm0 0" fill="#212121"/></svg>
